src/assets/footer_logo.svg

<svg width="258" height="63" viewBox="0 0 258 63" fill="none" xmlns="http://www.w3.org/2000/svg">
<circle cx="31.5" cy="31.5002" r="31.5" fill="#FF64AE"/>
<rect x="39" y="26.0002" width="40" height="11" rx="5.5" fill="white"/>
<circle cx="28" cy="26.0002" r="3" fill="white"/>
<circle cx="18.5" cy="17.5002" r="6.5" fill="white"/>
<path d="M108.688 31.3602C109.664 31.5682 110.448 32.0562 111.04 32.8242C111.632 33.5762 111.928 34.4402 111.928 35.4162C111.928 36.8242 111.432 37.9442 110.44 38.7762C109.464 39.5922 108.096 40.0002 106.336 40.0002H98.488V23.1522H106.072C107.784 23.1522 109.12 23.5442 110.08 24.3282C111.056 25.1122 111.544 26.1762 111.544 27.5202C111.544 28.5122 111.28 29.3362 110.752 29.9922C110.24 30.6482 109.552 31.1042 108.688 31.3602ZM102.592 29.9682H105.28C105.952 29.9682 106.464 29.8242 106.816 29.5362C107.184 29.2322 107.368 28.7922 107.368 28.2162C107.368 27.6402 107.184 27.2002 106.816 26.8962C106.464 26.5922 105.952 26.4402 105.28 26.4402H102.592V29.9682ZM105.616 36.6882C106.304 36.6882 106.832 36.5362 107.2 36.2322C107.584 35.9122 107.776 35.4562 107.776 34.8642C107.776 34.2722 107.576 33.8082 107.176 33.4722C106.792 33.1362 106.256 32.9682 105.568 32.9682H102.592V36.6882H105.616ZM129.332 33.0882C129.332 33.4722 129.308 33.8722 129.26 34.2882H119.972C120.036 35.1202 120.3 35.7602 120.764 36.2082C121.244 36.6402 121.828 36.8562 122.516 36.8562C123.54 36.8562 124.252 36.4242 124.652 35.5602H129.02C128.796 36.4402 128.388 37.2322 127.796 37.9362C127.22 38.6402 126.492 39.1922 125.612 39.5922C124.732 39.9922 123.748 40.1922 122.66 40.1922C121.348 40.1922 120.18 39.9122 119.156 39.3522C118.132 38.7922 117.332 37.9922 116.756 36.9522C116.18 35.9122 115.892 34.6962 115.892 33.3042C115.892 31.9122 116.172 30.6962 116.732 29.6562C117.308 28.6162 118.108 27.8162 119.132 27.2562C120.156 26.6962 121.332 26.4162 122.66 26.4162C123.956 26.4162 125.108 26.6882 126.116 27.2322C127.124 27.7762 127.908 28.5522 128.468 29.5602C129.044 30.5682 129.332 31.7442 129.332 33.0882ZM125.132 32.0082C125.132 31.3042 124.892 30.7442 124.412 30.3282C123.932 29.9122 123.332 29.7042 122.612 29.7042C121.924 29.7042 121.34 29.9042 120.86 30.3042C120.396 30.7042 120.108 31.2722 119.996 32.0082H125.132ZM133.081 33.2802C133.081 31.9042 133.337 30.6962 133.849 29.6562C134.377 28.6162 135.089 27.8162 135.985 27.2562C136.881 26.6962 137.881 26.4162 138.985 26.4162C139.929 26.4162 140.753 26.6082 141.457 26.9922C142.177 27.3762 142.729 27.8802 143.113 28.5042V26.6082H147.217V40.0002H143.113V38.1042C142.713 38.7282 142.153 39.2322 141.433 39.6162C140.729 40.0002 139.905 40.1922 138.961 40.1922C137.873 40.1922 136.881 39.9122 135.985 39.3522C135.089 38.7762 134.377 37.9682 133.849 36.9282C133.337 35.8722 133.081 34.6562 133.081 33.2802ZM143.113 33.3042C143.113 32.2802 142.825 31.4722 142.249 30.8802C141.689 30.2882 141.001 29.9922 140.185 29.9922C139.369 29.9922 138.673 30.2882 138.097 30.8802C137.537 31.4562 137.257 32.2562 137.257 33.2802C137.257 34.3042 137.537 35.1202 138.097 35.7282C138.673 36.3202 139.369 36.6162 140.185 36.6162C141.001 36.6162 141.689 36.3202 142.249 35.7282C142.825 35.1362 143.113 34.3282 143.113 33.3042ZM165.81 26.6082V40.0002H161.706V38.1762C161.29 38.7682 160.722 39.2482 160.002 39.6162C159.298 39.9682 158.514 40.1442 157.65 40.1442C156.626 40.1442 155.722 39.9202 154.938 39.4722C154.154 39.0082 153.546 38.3442 153.114 37.4802C152.682 36.6162 152.466 35.6002 152.466 34.4322V26.6082H156.546V33.8802C156.546 34.7762 156.778 35.4722 157.242 35.9682C157.706 36.4642 158.33 36.7122 159.114 36.7122C159.914 36.7122 160.546 36.4642 161.01 35.9682C161.474 35.4722 161.706 34.7762 161.706 33.8802V26.6082H165.81ZM178.622 36.5202V40.0002H176.534C175.046 40.0002 173.886 39.6402 173.054 38.9202C172.222 38.1842 171.806 36.9922 171.806 35.3442V30.0162H170.174V26.6082H171.806V23.3442H175.91V26.6082H178.598V30.0162H175.91V35.3922C175.91 35.7922 176.006 36.0802 176.198 36.2562C176.39 36.4322 176.71 36.5202 177.158 36.5202H178.622ZM185.372 25.2162C184.652 25.2162 184.06 25.0082 183.596 24.5922C183.148 24.1602 182.924 23.6322 182.924 23.0082C182.924 22.3682 183.148 21.8402 183.596 21.4242C184.06 20.9922 184.652 20.7762 185.372 20.7762C186.076 20.7762 186.652 20.9922 187.1 21.4242C187.564 21.8402 187.796 22.3682 187.796 23.0082C187.796 23.6322 187.564 24.1602 187.1 24.5922C186.652 25.0082 186.076 25.2162 185.372 25.2162ZM187.412 26.6082V40.0002H183.308V26.6082H187.412ZM191.97 33.3042C191.97 31.9122 192.25 30.6962 192.81 29.6562C193.386 28.6162 194.178 27.8162 195.186 27.2562C196.21 26.6962 197.378 26.4162 198.69 26.4162C200.37 26.4162 201.77 26.8562 202.89 27.7362C204.026 28.6162 204.77 29.8562 205.122 31.4562H200.754C200.386 30.4322 199.674 29.9202 198.618 29.9202C197.866 29.9202 197.266 30.2162 196.818 30.8082C196.37 31.3842 196.146 32.2162 196.146 33.3042C196.146 34.3922 196.37 35.2322 196.818 35.8242C197.266 36.4002 197.866 36.6882 198.618 36.6882C199.674 36.6882 200.386 36.1762 200.754 35.1522H205.122C204.77 36.7202 204.026 37.9522 202.89 38.8482C201.754 39.7442 200.354 40.1922 198.69 40.1922C197.378 40.1922 196.21 39.9122 195.186 39.3522C194.178 38.7922 193.386 37.9922 192.81 36.9522C192.25 35.9122 191.97 34.6962 191.97 33.3042ZM222.342 33.0882C222.342 33.4722 222.318 33.8722 222.27 34.2882H212.982C213.046 35.1202 213.31 35.7602 213.774 36.2082C214.254 36.6402 214.838 36.8562 215.526 36.8562C216.55 36.8562 217.262 36.4242 217.662 35.5602H222.03C221.806 36.4402 221.398 37.2322 220.806 37.9362C220.23 38.6402 219.502 39.1922 218.622 39.5922C217.742 39.9922 216.758 40.1922 215.67 40.1922C214.358 40.1922 213.19 39.9122 212.166 39.3522C211.142 38.7922 210.342 37.9922 209.766 36.9522C209.19 35.9122 208.902 34.6962 208.902 33.3042C208.902 31.9122 209.182 30.6962 209.742 29.6562C210.318 28.6162 211.118 27.8162 212.142 27.2562C213.166 26.6962 214.342 26.4162 215.67 26.4162C216.966 26.4162 218.118 26.6882 219.126 27.2322C220.134 27.7762 220.918 28.5522 221.478 29.5602C222.054 30.5682 222.342 31.7442 222.342 33.0882ZM218.142 32.0082C218.142 31.3042 217.902 30.7442 217.422 30.3282C216.942 29.9122 216.342 29.7042 215.622 29.7042C214.934 29.7042 214.35 29.9042 213.87 30.3042C213.406 30.7042 213.118 31.2722 213.006 32.0082H218.142Z" fill="white"/>
</svg>

<svg width="258" height="63" fill="none" xmlns="http://www.w3.org/2000/svg">
	<circle cx="31.5" cy="31.5" r="31.5" fill="#FF64AE"/>
	<rect x="39" y="26" width="40" height="11" rx="5.5" fill="#fff"/>
	<circle cx="28" cy="26" r="3" fill="#fff"/>
	<circle cx="18.5" cy="17.5" r="6.5" fill="#fff"/>
	<path d="M108.688 31.36c.976.208 1.76.696 2.352 1.464.592.752.888 1.616.888 2.592 0 1.408-.496 2.528-1.488 3.36-.976.816-2.344 1.224-4.104 1.224h-7.848V23.152h7.584c1.712 0 3.048.392 4.008 1.176.976.784 1.464 1.848 1.464 3.192 0 .992-.264 1.816-.792 2.472-.512.656-1.2 1.112-2.064 1.368Zm-6.096-1.392h2.688c.672 0 1.184-.144 1.536-.432.368-.304.552-.744.552-1.32 0-.576-.184-1.016-.552-1.32-.352-.304-.864-.456-1.536-.456h-2.688v3.528Zm3.024 6.72c.688 0 1.216-.152 1.584-.456.384-.32.576-.776.576-1.368 0-.592-.2-1.056-.6-1.392-.384-.336-.92-.504-1.608-.504h-2.976v3.72h3.024Zm23.716-3.6c0 .384-.024.784-.072 1.2h-9.288c.064.832.328 1.472.792 1.92.48.432 1.064.648 1.752.648 1.024 0 1.736-.432 2.136-1.296h4.368a5.916 5.916 0 0 1-1.224 2.376 5.958 5.958 0 0 1-2.184 1.656c-.88.4-1.864.6-2.952.6-1.312 0-2.48-.28-3.504-.84a5.975 5.975 0 0 1-2.4-2.4c-.576-1.04-.864-2.256-.864-3.648 0-1.392.28-2.608.84-3.648a5.975 5.975 0 0 1 2.4-2.4c1.024-.56 2.2-.84 3.528-.84 1.296 0 2.448.272 3.456.816a5.781 5.781 0 0 1 2.352 2.328c.576 1.008.864 2.184.864 3.528Zm-4.2-1.08c0-.704-.24-1.264-.72-1.68-.48-.416-1.08-.624-1.8-.624-.688 0-1.272.2-1.752.6-.464.4-.752.968-.864 1.704h5.136Zm7.949 1.272c0-1.376.256-2.584.768-3.624.528-1.04 1.24-1.84 2.136-2.4.896-.56 1.896-.84 3-.84.944 0 1.768.192 2.472.576.72.384 1.272.888 1.656 1.512v-1.896h4.104V40h-4.104v-1.896c-.4.624-.96 1.128-1.68 1.512-.704.384-1.528.576-2.472.576-1.088 0-2.08-.28-2.976-.84-.896-.576-1.608-1.384-2.136-2.424-.512-1.056-.768-2.272-.768-3.648Zm10.032.024c0-1.024-.288-1.832-.864-2.424a2.73 2.73 0 0 0-2.064-.888c-.816 0-1.512.296-2.088.888-.56.576-.84 1.376-.84 2.4s.28 1.84.84 2.448c.576.592 1.272.888 2.088.888a2.73 2.73 0 0 0 2.064-.888c.576-.592.864-1.4.864-2.424Zm22.697-6.696V40h-4.104v-1.824c-.416.592-.984 1.072-1.704 1.44-.704.352-1.488.528-2.352.528-1.024 0-1.928-.224-2.712-.672-.784-.464-1.392-1.128-1.824-1.992-.432-.864-.648-1.88-.648-3.048v-7.824h4.08v7.272c0 .896.232 1.592.696 2.088.464.496 1.088.744 1.872.744.8 0 1.432-.248 1.896-.744.464-.496.696-1.192.696-2.088v-7.272h4.104Zm12.812 9.912V40h-2.088c-1.488 0-2.648-.36-3.48-1.08-.832-.736-1.248-1.928-1.248-3.576v-5.328h-1.632v-3.408h1.632v-3.264h4.104v3.264h2.688v3.408h-2.688v5.376c0 .4.096.688.288.864.192.176.512.264.96.264h1.464Zm6.75-11.304c-.72 0-1.312-.208-1.776-.624a2.116 2.116 0 0 1-.672-1.584c0-.64.224-1.168.672-1.584.464-.432 1.056-.648 1.776-.648.704 0 1.28.216 1.728.648.464.416.696.944.696 1.584 0 .624-.232 1.152-.696 1.584-.448.416-1.024.624-1.728.624Zm2.04 1.392V40h-4.104V26.608h4.104Zm4.558 6.696c0-1.392.28-2.608.84-3.648a6.017 6.017 0 0 1 2.376-2.4c1.024-.56 2.192-.84 3.504-.84 1.68 0 3.08.44 4.2 1.32 1.136.88 1.88 2.12 2.232 3.72h-4.368c-.368-1.024-1.08-1.536-2.136-1.536-.752 0-1.352.296-1.8.888-.448.576-.672 1.408-.672 2.496s.224 1.928.672 2.52c.448.576 1.048.864 1.8.864 1.056 0 1.768-.512 2.136-1.536h4.368c-.352 1.568-1.096 2.8-2.232 3.696-1.136.896-2.536 1.344-4.2 1.344-1.312 0-2.48-.28-3.504-.84a6.017 6.017 0 0 1-2.376-2.4c-.56-1.04-.84-2.256-.84-3.648Zm30.372-.216c0 .384-.024.784-.072 1.2h-9.288c.064.832.328 1.472.792 1.92.48.432 1.064.648 1.752.648 1.024 0 1.736-.432 2.136-1.296h4.368a5.916 5.916 0 0 1-1.224 2.376 5.958 5.958 0 0 1-2.184 1.656c-.88.4-1.864.6-2.952.6-1.312 0-2.48-.28-3.504-.84a5.975 5.975 0 0 1-2.4-2.4c-.576-1.04-.864-2.256-.864-3.648 0-1.392.28-2.608.84-3.648a5.975 5.975 0 0 1 2.4-2.4c1.024-.56 2.2-.84 3.528-.84 1.296 0 2.448.272 3.456.816a5.781 5.781 0 0 1 2.352 2.328c.576 1.008.864 2.184.864 3.528Zm-4.2-1.08c0-.704-.24-1.264-.72-1.68-.48-.416-1.08-.624-1.8-.624-.688 0-1.272.2-1.752.6-.464.4-.752.968-.864 1.704h5.136Z" fill="#fff"/>
</svg>
